assets/svg/1F4D4.svg

<svg xmlns="http://www.w3.org/2000/svg" viewBox="0 0 64 64" enable-background="new 0 0 64 64"><g transform="translate(6)"><path d="m.205 58.21c0 0 1.883 7.244 13.669 5.39l2.01-4.849-3.391-3.685-9.385-3.096-2.899 6.24" fill="#34484c"/><path d="m37.755 44.634c0 2.568-1.319 3.24-4.651 4.648l-28.455 12.02c-2.566 0-4.649-2.082-4.649-4.65v-39.982c0-2.568 1.509-3.423 4.649-4.65l28.455-12.01c2.57 0 4.651 2.082 4.651 4.652v39.982" fill="#b9a831"/><path d="m2.584 60.809c0 0 10.667 3.057 11.29 2.793.621-.262-.399-4.624-.399-4.624l-3.857-4.156-3.59-.165-.631.896-2.813 5.256" fill="#34484c"/><path d="m32.434 2.766l-31.566 13.263 1.48 8.499 4.701.471 15.681-2.526 9.751-5.108 7.174-9.829c-1.57-2.812-3.873-4.554-7.221-4.77" fill="#f4f5f5"/><path d="m9.231 18.97c0-.742.133-1.34.386-1.847-3.228-.301-6.279-1.235-8.505-3.24-.738.68-1.102 1.524-1.102 2.781v39.983c0 2.567 2.083 4.649 4.652 4.649l4.591-1.938c-.011-.135-.022-.27-.022-.406v-39.982" fill="#34484c"/><path d="m47.799 48.574c0 2.568-1.319 3.242-4.649 4.649l-29.28 10.379c-2.569 0-4.655-2.079-4.655-4.649v-39.983c0-2.568 1.512-3.421 4.655-4.65l29.27-10.378c2.569 0 4.649 2.082 4.649 4.65v39.982" fill="#f7ec35"/><path d="m26.11 58.2c-2.567 0-4.652-2.082-4.652-4.65v-39.983c0-1.434.679-1.794 1.642-2.524l-9.23 3.272c-3.143 1.229-4.655 2.082-4.655 4.65v39.982c0 2.57 2.085 4.649 4.655 4.649l29.28-10.378c1.379-.583 2.409-1.041 3.149-1.561l-20.18 6.543" fill="#d7c626"/><g fill="#a49032"><path d="m35.678 16.14c.126.326-.036.69-.36.815l-15.572 6c-.325.125-.688-.036-.812-.36l0 0c-.125-.324.037-.688.36-.812l15.574-6c.32-.126.687.035.81.359l0 0"/><path d="m35.678 19.01c.126.324-.036.69-.36.814l-15.572 6c-.325.125-.688-.036-.812-.36l0 0c-.125-.324.037-.688.36-.812l15.574-6c.32-.125.687.036.81.36l0 0"/><path d="m30.386 24.01c.125.324.048.658-.174.742l-10.633 4.099c-.224.086-.505-.109-.628-.433l0 0c-.125-.324-.046-.656.175-.74l10.632-4.101c.223-.083.502.11.628.433l0 0"/></g></g></svg>

<?xml version="1.0" encoding="UTF-8" standalone="no"?>
<!-- Generator: Adobe Illustrator 16.0.0, SVG Export Plug-In . SVG Version: 6.00 Build 0)  -->

<svg
   xmlns:dc="http://purl.org/dc/elements/1.1/"
   xmlns:cc="http://creativecommons.org/ns#"
   xmlns:rdf="http://www.w3.org/1999/02/22-rdf-syntax-ns#"
   xmlns:svg="http://www.w3.org/2000/svg"
   xmlns="http://www.w3.org/2000/svg"
   xmlns:sodipodi="http://sodipodi.sourceforge.net/DTD/sodipodi-0.dtd"
   xmlns:inkscape="http://www.inkscape.org/namespaces/inkscape"
   version="1.1"
   id="Layer_1"
   x="0px"
   y="0px"
   width="64px"
   height="64px"
   viewBox="0 0 64 64"
   enable-background="new 0 0 64 64"
   xml:space="preserve"
   inkscape:version="0.48.5 r10040"
   sodipodi:docname="1F4D4.svg"><metadata
   id="metadata41403"><rdf:RDF><cc:Work
       rdf:about=""><dc:format>image/svg+xml</dc:format><dc:type
         rdf:resource="http://purl.org/dc/dcmitype/StillImage" /></cc:Work></rdf:RDF></metadata><defs
   id="defs41401" /><sodipodi:namedview
   pagecolor="#ffffff"
   bordercolor="#666666"
   borderopacity="1"
   objecttolerance="10"
   gridtolerance="10"
   guidetolerance="10"
   inkscape:pageopacity="0"
   inkscape:pageshadow="2"
   inkscape:window-width="640"
   inkscape:window-height="480"
   id="namedview41399"
   showgrid="false"
   inkscape:zoom="3.6875"
   inkscape:cx="32"
   inkscape:cy="32"
   inkscape:window-x="0"
   inkscape:window-y="0"
   inkscape:window-maximized="0"
   inkscape:current-layer="g41375" />
<g
   id="g41375"
   transform="translate(6,0)">
	<path
   d="m 0.205,58.212 c 0,0 1.883,7.244 13.669,5.39 l 2.006,-4.849 -3.391,-3.685 -9.385,-3.096 -2.899,6.24 z"
   id="path41377"
   inkscape:connector-curvature="0"
   style="fill:#34484c" />
	<path
   d="m 37.755,44.634 c 0,2.568 -1.319,3.24 -4.651,4.648 L 4.649,61.297 C 2.083,61.297 0,59.215 0,56.647 V 16.665 c 0,-2.568 1.509,-3.423 4.649,-4.65 L 33.104,0 c 2.57,0 4.651,2.082 4.651,4.652 v 39.982 z"
   id="path41379"
   inkscape:connector-curvature="0"
   style="fill:#b9a831" />
	<path
   d="m 2.584,60.809 c 0,0 10.667,3.057 11.29,2.793 0.621,-0.262 -0.399,-4.624 -0.399,-4.624 L 9.618,54.822 6.028,54.657 5.397,55.553 2.584,60.809 z"
   id="path41381"
   inkscape:connector-curvature="0"
   style="fill:#34484c" />
	<path
   d="m 32.434,2.766 -31.566,13.263 1.48,8.499 4.701,0.471 15.681,-2.526 9.751,-5.108 7.174,-9.829 C 38.085,4.724 35.782,2.982 32.434,2.766 z"
   id="path41383"
   inkscape:connector-curvature="0"
   style="fill:#f4f5f5" />
	<path
   d="m 9.231,18.97 c 0,-0.742 0.133,-1.34 0.386,-1.847 C 6.389,16.822 3.338,15.888 1.112,13.883 0.374,14.563 0.01,15.407 0.01,16.664 v 39.983 c 0,2.567 2.083,4.649 4.652,4.649 L 9.253,59.358 C 9.242,59.223 9.231,59.088 9.231,58.952 V 18.97 z"
   id="path41385"
   inkscape:connector-curvature="0"
   style="fill:#34484c" />
	<path
   d="m 47.799,48.574 c 0,2.568 -1.319,3.242 -4.649,4.649 L 13.874,63.602 c -2.569,0 -4.655,-2.079 -4.655,-4.649 V 18.97 c 0,-2.568 1.512,-3.421 4.655,-4.65 L 43.149,3.942 c 2.569,0 4.649,2.082 4.649,4.65 v 39.982 z"
   id="path41387"
   inkscape:connector-curvature="0"
   style="fill:#f7ec35" />
	<path
   d="m 26.114,58.204 c -2.567,0 -4.652,-2.082 -4.652,-4.65 V 13.571 c 0,-1.434 0.679,-1.794 1.642,-2.524 l -9.23,3.272 c -3.143,1.229 -4.655,2.082 -4.655,4.65 v 39.982 c 0,2.57 2.085,4.649 4.655,4.649 L 43.149,53.222 c 1.379,-0.583 2.409,-1.041 3.149,-1.561 l -20.184,6.543 z"
   id="path41389"
   inkscape:connector-curvature="0"
   style="fill:#d7c626" />
	<g
   id="g41391">
		<path
   d="m 35.678,16.144 c 0.126,0.326 -0.036,0.69 -0.36,0.815 L 19.746,22.96 c -0.325,0.125 -0.688,-0.036 -0.812,-0.36 l 0,0 c -0.125,-0.324 0.037,-0.688 0.36,-0.812 l 15.574,-6.003 c 0.32,-0.126 0.687,0.035 0.81,0.359 l 0,0 z"
   id="path41393"
   inkscape:connector-curvature="0"
   style="fill:#a49032" />
		<path
   d="m 35.678,19.008 c 0.126,0.324 -0.036,0.69 -0.36,0.814 l -15.572,6.001 c -0.325,0.125 -0.688,-0.036 -0.812,-0.36 l 0,0 c -0.125,-0.324 0.037,-0.688 0.36,-0.812 l 15.574,-6.003 c 0.32,-0.125 0.687,0.036 0.81,0.36 l 0,0 z"
   id="path41395"
   inkscape:connector-curvature="0"
   style="fill:#a49032" />
		<path
   d="m 30.386,24.007 c 0.125,0.324 0.048,0.658 -0.174,0.742 l -10.633,4.099 c -0.224,0.086 -0.505,-0.109 -0.628,-0.433 l 0,0 c -0.125,-0.324 -0.046,-0.656 0.175,-0.74 l 10.632,-4.101 c 0.223,-0.083 0.502,0.11 0.628,0.433 l 0,0 z"
   id="path41397"
   inkscape:connector-curvature="0"
   style="fill:#a49032" />
	</g>
</g>
</svg>
